X: 14391
T: Galway Bay
R: hornpipe
M: 4/4
K: Edorian
E|F G3 A B3|d e3 e>fg>e|d>Bg>e d>BA>B|G>FE>D E>DB,>D|
E3 F G3 E|D3 E F>ED>B,|E>FG>A B>A (3FGA|G2 E2 E3:|
|:e>dB>d e2 g>f|e>dB>=c B>GE>F|G3 A B3 c|d>AB>G F>ED>F|
G>DB>G F>DA>F|G>DA>G F>D=c>A|B>de>f g>fe>d|B2 e2 e2:|

